public/favicon.svg

<svg width="24" height="24" viewBox="0 0 24 24" fill="none" xmlns="http://www.w3.org/2000/svg">
<g clip-path="url(#clip0_16_5)">
<path opacity="0.987" fill-rule="evenodd" clip-rule="evenodd" d="M10.0786 -0.0055542C11.0102 -0.0055542 11.9418 -0.0055542 12.8734 -0.0055542C12.9109 0.00240411 12.9361 0.0245546 12.9491 0.0608971C13.4432 2.98384 13.9322 5.90769 14.4163 8.83247C14.4248 8.87541 14.4228 8.91787 14.4105 8.95984C14.3968 8.97905 14.3773 8.99013 14.3523 8.99306C12.4037 8.9986 10.4551 9.00045 8.50657 8.9986C8.50007 8.9671 8.4923 8.93571 8.48328 8.90446C8.96827 5.94306 9.46511 2.98412 9.97381 0.0276715C10.0106 0.0180914 10.0456 0.00701617 10.0786 -0.0055542ZM10.428 0.437455C11.1111 0.435608 11.7943 0.437455 12.4775 0.442992C12.4999 0.445773 12.5214 0.451311 12.5415 0.459605C12.5678 0.569784 12.5911 0.680536 12.6114 0.791862C12.8036 1.95921 12.9996 3.12581 13.1994 4.29163C13.1566 4.31476 13.11 4.32768 13.0597 4.33039C12.7453 4.33408 12.4309 4.33778 12.1165 4.34147C12.0699 4.4821 12.0699 4.62239 12.1165 4.76233C12.4811 4.77591 12.846 4.78329 13.2111 4.78448C13.237 4.78582 13.2584 4.79504 13.2751 4.81217C13.4924 6.05042 13.6962 7.28899 13.8865 8.5279C13.8598 8.53701 13.8327 8.54439 13.805 8.55005C12.2291 8.55744 10.6531 8.55744 9.07716 8.55005C9.06242 8.54663 9.04883 8.54109 9.03641 8.53344C9.03238 8.51441 9.02655 8.49595 9.01894 8.47806C9.22522 7.26405 9.429 6.04947 9.63029 4.83432C9.65045 4.81087 9.67568 4.79426 9.70598 4.78448C10.327 4.78079 10.9481 4.77709 11.5692 4.7734C11.6119 4.76971 11.6545 4.76602 11.6973 4.76233C11.706 4.74312 11.7118 4.72282 11.7147 4.70141C11.7254 4.58984 11.7216 4.47909 11.7031 4.36916C11.6865 4.35853 11.6691 4.3493 11.6507 4.34147C11.0413 4.33778 10.4318 4.33408 9.82243 4.33039C9.78271 4.3291 9.7536 4.31249 9.7351 4.28056C9.93143 3.05103 10.1333 1.82168 10.3406 0.592508C10.3475 0.550682 10.3592 0.510074 10.3756 0.47068C10.3948 0.460719 10.4123 0.449644 10.428 0.437455Z" fill="#EEB529"/>
<path opacity="0.992" fill-rule="evenodd" clip-rule="evenodd" d="M1.06549 15.0789C1.10042 15.0679 1.12371 15.0457 1.13535 15.0125C1.22075 14.935 1.30615 14.8574 1.39154 14.7799C1.43035 14.7652 1.45753 14.7393 1.47305 14.7024C1.57009 14.6138 1.66714 14.5252 1.76417 14.4366C1.80299 14.4218 1.83017 14.3959 1.84569 14.359C1.93885 14.2741 2.03201 14.1893 2.12516 14.1043C2.16398 14.0896 2.19116 14.0637 2.20668 14.0268C2.29596 13.9456 2.38523 13.8643 2.47451 13.7831C2.51721 13.7646 2.54826 13.7352 2.56767 13.6945C2.66083 13.6096 2.75399 13.5247 2.84714 13.4398C2.88596 13.4251 2.91314 13.3992 2.92866 13.3623C3.02569 13.2737 3.12274 13.1851 3.21978 13.0965C3.25386 13.0825 3.28104 13.0604 3.30129 13.03C3.38668 12.9414 3.47597 12.8565 3.56912 12.7753C3.61183 12.7568 3.64287 12.7273 3.66228 12.6867C3.75544 12.6017 3.8486 12.5169 3.94176 12.432C3.98057 12.4172 4.00775 12.3913 4.02327 12.3544C4.11643 12.2695 4.20959 12.1846 4.30275 12.0997C4.34076 12.0821 4.37181 12.0562 4.39591 12.0222C4.48519 11.9299 4.57835 11.8413 4.67538 11.7564C4.7142 11.7416 4.74137 11.7157 4.7569 11.6788C4.84618 11.5977 4.93545 11.5164 5.02473 11.4352C5.06743 11.4167 5.09847 11.3872 5.11789 11.3466C5.21105 11.2616 5.3042 11.1768 5.39736 11.0919C5.43617 11.0771 5.46335 11.0512 5.47888 11.0143C5.57591 10.9257 5.67296 10.8371 5.77 10.7485C5.80408 10.7346 5.83126 10.7124 5.85151 10.6821C5.9369 10.5935 6.02618 10.5086 6.11934 10.4273C6.16204 10.4089 6.19309 10.3793 6.2125 10.3387C6.34636 10.2133 6.48221 10.0896 6.62007 9.96772C6.64868 9.95042 6.67974 9.93934 6.71323 9.93449C9.86574 9.92345 13.0176 9.92714 16.1688 9.94557C16.2217 9.96641 16.2683 9.99595 16.3086 10.0342C18.1313 11.7198 19.9576 13.4014 21.7875 15.0789C21.8285 15.1185 21.8361 15.1628 21.8108 15.2118C21.7281 15.3126 21.6369 15.4068 21.5371 15.4943C18.1731 18.2894 14.8078 21.0823 11.441 23.8727C11.393 23.8618 11.3503 23.8414 11.3129 23.8117C8.01623 21.0572 4.71297 18.3106 1.40319 15.5718C1.2728 15.4515 1.14665 15.3278 1.02473 15.2008C1.02074 15.1549 1.03432 15.1144 1.06549 15.0789ZM6.92284 10.372C7.27996 10.3701 7.63707 10.372 7.99416 10.3775C8.06085 10.3837 8.07832 10.4151 8.04656 10.4716C6.56174 12.4118 5.06344 14.3425 3.55166 16.264C3.47456 16.3632 3.39304 16.4591 3.30712 16.5519C2.75786 16.096 2.20862 15.6401 1.65937 15.1841C1.70207 15.1362 1.74476 15.0881 1.78746 15.0402C3.46044 13.5007 5.13341 11.9613 6.80639 10.4218C6.84499 10.4015 6.88381 10.3849 6.92284 10.372ZM9.00726 10.372C9.68267 10.3701 10.3581 10.372 11.0335 10.3775C11.0841 10.3826 11.1345 10.3882 11.1848 10.3941C11.2104 11.6825 11.2123 12.9709 11.1907 14.2594C11.1772 14.3136 11.1539 14.3174 11.1208 14.2704C10.3853 12.9913 9.65745 11.7084 8.93739 10.4218C8.95939 10.4023 8.98268 10.3857 9.00726 10.372ZM11.8137 10.372C12.458 10.3701 13.1024 10.372 13.7467 10.3775C13.77 10.3812 13.7933 10.3849 13.8166 10.3886C13.8244 10.4033 13.8321 10.4181 13.8399 10.4329C13.1527 11.6494 12.4638 12.8658 11.7729 14.0822C11.7458 14.1228 11.7108 14.156 11.6681 14.1818C11.6603 12.9561 11.6603 11.7306 11.6681 10.5049C11.6735 10.4677 11.6793 10.4308 11.6856 10.3941C11.7309 10.3925 11.7735 10.3851 11.8137 10.372ZM14.9228 10.372C15.2529 10.3701 15.5827 10.372 15.9126 10.3775C15.9844 10.3895 16.0464 10.419 16.099 10.4661C17.7063 11.9542 19.3171 13.4382 20.9316 14.9183C21.0154 14.9943 21.0949 15.0737 21.1703 15.1565C21.174 15.1721 21.1701 15.1868 21.1586 15.2008C20.6443 15.6308 20.1301 16.061 19.6157 16.491C19.5585 16.5199 19.5139 16.5071 19.4818 16.4523C17.9369 14.4513 16.3921 12.4504 14.8471 10.4495C14.8413 10.4276 14.8395 10.4055 14.8413 10.383C14.8711 10.3864 14.8983 10.3827 14.9228 10.372ZM14.3173 10.5824C14.3439 10.5947 14.3691 10.6094 14.393 10.6267C15.9545 12.648 17.5187 14.6674 19.0859 16.6848C19.1209 16.7292 19.15 16.7772 19.1732 16.8288C19.0312 16.9657 18.8837 17.0967 18.7307 17.222C17.6629 18.1159 16.5915 19.0055 15.5167 19.8911C15.3618 20.0201 15.2027 20.1437 15.0393 20.2621C14.9745 20.1946 14.9183 20.1208 14.8704 20.0406C13.8117 18.4218 12.7501 16.8048 11.6856 15.1897C12.5397 13.6397 13.417 12.104 14.3173 10.5824ZM8.48324 10.6599C8.51417 10.6838 8.54328 10.7096 8.57058 10.7374C9.39736 12.1846 10.2241 13.6317 11.0509 15.0789C11.1381 15.2114 11.1885 15.3554 11.2023 15.5109C11.2101 17.9474 11.2101 20.384 11.2023 22.8205C11.2001 22.8934 11.1943 22.9654 11.1848 23.0365C11.1616 23.0439 11.1383 23.0439 11.115 23.0365C8.68508 21.0208 6.2552 19.0051 3.82531 16.9894C3.77386 16.9479 3.73117 16.8999 3.69722 16.8454C5.29693 14.7862 6.89227 12.7243 8.48324 10.6599ZM11.6856 16.0979C11.7355 16.1224 11.7723 16.1593 11.7962 16.2086C12.7531 17.665 13.7098 19.1214 14.6666 20.5778C13.7143 21.3987 12.7518 22.2072 11.7787 23.0032C11.7093 23.0505 11.6724 23.0339 11.6681 22.9534C11.6603 20.6941 11.6603 18.4347 11.6681 16.1754C11.6732 16.1491 11.6791 16.1233 11.6856 16.0979Z" fill="#EEB529"/>
<path opacity="0.816" fill-rule="evenodd" clip-rule="evenodd" d="M6.21254 10.3387C6.19313 10.3794 6.16209 10.4089 6.11938 10.4273C6.14655 10.3941 6.17761 10.3646 6.21254 10.3387Z" fill="#EEB22A"/>
<path opacity="0.816" fill-rule="evenodd" clip-rule="evenodd" d="M5.85153 10.6821C5.83128 10.7124 5.8041 10.7346 5.77002 10.7485C5.79027 10.7181 5.81745 10.696 5.85153 10.6821Z" fill="#EEB32A"/>
<path opacity="0.816" fill-rule="evenodd" clip-rule="evenodd" d="M5.47891 11.0143C5.46339 11.0512 5.43621 11.0771 5.3974 11.0918C5.42069 11.0623 5.44786 11.0364 5.47891 11.0143Z" fill="#EEB22A"/>
<path opacity="0.816" fill-rule="evenodd" clip-rule="evenodd" d="M5.11788 11.3466C5.09847 11.3872 5.06742 11.4167 5.02472 11.4352C5.05189 11.4019 5.08294 11.3724 5.11788 11.3466Z" fill="#EEB22A"/>
<path opacity="0.816" fill-rule="evenodd" clip-rule="evenodd" d="M4.75693 11.6788C4.74141 11.7157 4.71423 11.7416 4.67542 11.7564C4.6987 11.7268 4.72587 11.701 4.75693 11.6788Z" fill="#EEB22A"/>
<path opacity="0.816" fill-rule="evenodd" clip-rule="evenodd" d="M4.39595 12.0222C4.37186 12.0562 4.3408 12.0821 4.3028 12.0997C4.32689 12.0657 4.35795 12.0398 4.39595 12.0222Z" fill="#EEB32A"/>
<path opacity="0.816" fill-rule="evenodd" clip-rule="evenodd" d="M4.02329 12.3544C4.00776 12.3913 3.98058 12.4172 3.94177 12.432C3.96506 12.4024 3.99223 12.3766 4.02329 12.3544Z" fill="#EEB22A"/>
<path opacity="0.816" fill-rule="evenodd" clip-rule="evenodd" d="M3.66231 12.6866C3.6429 12.7273 3.61185 12.7568 3.56915 12.7752C3.59632 12.742 3.62738 12.7125 3.66231 12.6866Z" fill="#EEB22A"/>
<path opacity="0.816" fill-rule="evenodd" clip-rule="evenodd" d="M3.3013 13.03C3.28105 13.0603 3.25387 13.0825 3.21979 13.0964C3.24004 13.0661 3.26722 13.0439 3.3013 13.03Z" fill="#EEB32A"/>
<path opacity="0.816" fill-rule="evenodd" clip-rule="evenodd" d="M2.92868 13.3622C2.91316 13.3991 2.88598 13.425 2.84717 13.4398C2.87046 13.4102 2.89763 13.3844 2.92868 13.3622Z" fill="#EEB22A"/>
<path opacity="0.816" fill-rule="evenodd" clip-rule="evenodd" d="M2.56771 13.6945C2.5483 13.7352 2.51725 13.7646 2.47455 13.7831C2.50172 13.7499 2.53277 13.7203 2.56771 13.6945Z" fill="#EEB22A"/>
<path opacity="0.816" fill-rule="evenodd" clip-rule="evenodd" d="M2.2067 14.0267C2.19117 14.0636 2.164 14.0895 2.12518 14.1043C2.14847 14.0747 2.17564 14.0489 2.2067 14.0267Z" fill="#EEB22A"/>
<path opacity="0.816" fill-rule="evenodd" clip-rule="evenodd" d="M1.84574 14.359C1.83021 14.3959 1.80303 14.4218 1.76422 14.4365C1.78751 14.407 1.81468 14.3812 1.84574 14.359Z" fill="#EEB22A"/>
<path opacity="0.816" fill-rule="evenodd" clip-rule="evenodd" d="M1.47305 14.7023C1.45753 14.7392 1.43035 14.7651 1.39154 14.7799C1.41483 14.7503 1.442 14.7245 1.47305 14.7023Z" fill="#EEB22A"/>
<path opacity="0.816" fill-rule="evenodd" clip-rule="evenodd" d="M1.13536 15.0125C1.12371 15.0457 1.10043 15.0678 1.06549 15.0789C1.0849 15.0531 1.10819 15.0309 1.13536 15.0125Z" fill="#EEB22B"/>
</g>
<defs>
<clipPath id="clip0_16_5">
<rect width="24" height="24" fill="white"/>
</clipPath>
</defs>
</svg>

<svg width="24" height="24" fill="none" xmlns="http://www.w3.org/2000/svg">
  <g clip-path="url(#a)" fill-rule="evenodd" clip-rule="evenodd">
    <path opacity=".987" d="M10.079-.006h2.794c.038.008.063.03.076.067.494 2.923.983 5.847 1.467 8.771a.264.264 0 0 1-.005.128.08.08 0 0 1-.059.033C12.404 9 10.455 9 8.507 9a1.251 1.251 0 0 0-.024-.095c.485-2.96.982-5.92 1.49-8.876.038-.01.073-.021.106-.034Zm.349.443c.683-.001 1.366 0 2.05.006a.248.248 0 0 1 .063.017c.027.11.05.22.07.332.193 1.167.389 2.334.588 3.5a.327.327 0 0 1-.14.038l-.942.011a.651.651 0 0 0 0 .421c.364.014.729.021 1.094.022.026.002.047.011.064.028.217 1.238.421 2.477.611 3.716a.663.663 0 0 1-.081.022c-1.576.007-3.152.007-4.728 0a.136.136 0 0 1-.04-.017.3.3 0 0 0-.018-.055c.206-1.214.41-2.429.611-3.644a.164.164 0 0 1 .076-.05l1.863-.01.128-.012a.218.218 0 0 0 .018-.06c.01-.112.007-.223-.012-.333a.354.354 0 0 0-.052-.028l-1.829-.01a.098.098 0 0 1-.087-.05c.196-1.23.398-2.46.606-3.688a.548.548 0 0 1 .035-.122.342.342 0 0 0 .052-.034Z" fill="#EEB529"/>
    <path opacity=".992" d="M1.065 15.079a.102.102 0 0 0 .07-.067l.257-.232a.137.137 0 0 0 .081-.078l.291-.265a.138.138 0 0 0 .082-.078l.28-.255a.137.137 0 0 0 .08-.077l.269-.244a.177.177 0 0 0 .093-.088l.28-.255a.137.137 0 0 0 .08-.078l.292-.265a.176.176 0 0 0 .081-.067c.086-.089.175-.173.268-.255a.178.178 0 0 0 .093-.088l.28-.255a.138.138 0 0 0 .081-.078l.28-.254a.232.232 0 0 0 .093-.078c.09-.092.182-.18.28-.266a.138.138 0 0 0 .08-.077l.269-.244a.178.178 0 0 0 .093-.088l.28-.255a.138.138 0 0 0 .08-.078l.292-.265a.176.176 0 0 0 .082-.067c.085-.088.174-.173.267-.255a.177.177 0 0 0 .094-.088c.133-.126.27-.25.407-.371a.246.246 0 0 1 .093-.034c3.153-.01 6.305-.007 9.456.012.053.02.1.05.14.088 1.822 1.686 3.649 3.367 5.479 5.045.04.04.048.084.023.133-.083.1-.174.195-.274.282-3.364 2.795-6.73 5.588-10.096 8.379a.316.316 0 0 1-.128-.061c-3.297-2.755-6.6-5.501-9.91-8.24a8.74 8.74 0 0 1-.378-.371.157.157 0 0 1 .04-.122Zm5.858-4.707c.357-.002.714 0 1.071.005.067.007.084.038.053.095a546.914 546.914 0 0 1-4.495 5.792 4.38 4.38 0 0 1-.245.288L1.66 15.184l.128-.144 5.02-4.618a.768.768 0 0 1 .116-.05Zm2.084 0c.676-.002 1.351 0 2.027.005l.15.017c.026 1.288.028 2.577.007 3.865-.014.055-.037.058-.07.011a380.987 380.987 0 0 1-2.184-3.848.396.396 0 0 1 .07-.05Zm2.807 0c.644-.002 1.288 0 1.933.005l.07.012.023.044c-.687 1.216-1.376 2.433-2.067 3.65a.328.328 0 0 1-.105.099 288.883 288.883 0 0 1 0-3.677c.006-.037.011-.074.018-.11a.464.464 0 0 0 .128-.023Zm3.109 0c.33-.002.66 0 .99.005a.363.363 0 0 1 .186.09c1.607 1.487 3.218 2.971 4.833 4.451.083.076.163.156.238.239a.05.05 0 0 1-.011.044l-1.543 1.29c-.058.029-.102.016-.134-.039l-4.635-6.003a.196.196 0 0 1-.006-.066c.03.003.057 0 .082-.011Zm-.606.21a.453.453 0 0 1 .076.045c1.561 2.021 3.126 4.04 4.693 6.058a.686.686 0 0 1 .087.144c-.142.137-.29.268-.442.393-1.068.894-2.14 1.784-3.214 2.67a8.972 8.972 0 0 1-.478.37 1.227 1.227 0 0 1-.169-.221c-1.058-1.62-2.12-3.236-3.184-4.851.854-1.55 1.731-3.086 2.631-4.608Zm-5.834.078c.031.024.06.05.088.077l2.48 4.342a.923.923 0 0 1 .151.432c.008 2.436.008 4.873 0 7.31a2.11 2.11 0 0 1-.017.215.113.113 0 0 1-.07 0c-2.43-2.015-4.86-4.03-7.29-6.047a.574.574 0 0 1-.128-.144c1.6-2.059 3.195-4.12 4.786-6.185Zm3.203 5.438c.05.024.086.061.11.11l2.87 4.37c-.952.82-1.914 1.63-2.887 2.425-.07.047-.107.03-.11-.05-.009-2.259-.009-4.518 0-6.778.004-.026.01-.052.017-.077Z" fill="#EEB529"/>
    <path opacity=".816" d="M6.213 10.339c-.02.04-.05.07-.094.088a.52.52 0 0 1 .094-.088Z" fill="#EEB22A"/>
    <path opacity=".816" d="M5.852 10.682a.176.176 0 0 1-.082.066.175.175 0 0 1 .082-.066Z" fill="#EEB32A"/>
    <path opacity=".816" d="M5.479 11.014a.137.137 0 0 1-.082.078.396.396 0 0 1 .082-.078ZM5.118 11.347c-.02.04-.05.07-.093.088a.513.513 0 0 1 .093-.088ZM4.757 11.679a.138.138 0 0 1-.082.077.396.396 0 0 1 .082-.077Z" fill="#EEB22A"/>
    <path opacity=".816" d="M4.396 12.022a.232.232 0 0 1-.093.078.232.232 0 0 1 .093-.078Z" fill="#EEB32A"/>
    <path opacity=".816" d="M4.023 12.354a.138.138 0 0 1-.081.078.396.396 0 0 1 .081-.078ZM3.662 12.687c-.02.04-.05.07-.093.088a.52.52 0 0 1 .093-.088Z" fill="#EEB22A"/>
    <path opacity=".816" d="M3.301 13.03a.176.176 0 0 1-.081.066.176.176 0 0 1 .081-.066Z" fill="#EEB32A"/>
    <path opacity=".816" d="M2.929 13.362a.138.138 0 0 1-.082.078.396.396 0 0 1 .082-.078ZM2.568 13.694c-.02.041-.05.07-.093.09a.516.516 0 0 1 .093-.09ZM2.207 14.027a.138.138 0 0 1-.082.077.396.396 0 0 1 .082-.077ZM1.846 14.359a.137.137 0 0 1-.082.078.398.398 0 0 1 .082-.078ZM1.473 14.702a.138.138 0 0 1-.081.078.396.396 0 0 1 .081-.078Z" fill="#EEB22A"/>
    <path opacity=".816" d="M1.135 15.012a.103.103 0 0 1-.07.067.291.291 0 0 1 .07-.067Z" fill="#EEB22B"/>
  </g>
  <defs>
    <clipPath id="a">
      <path fill="#fff" d="M0 0h24v24H0z"/>
    </clipPath>
  </defs>
</svg>
